X:497
T: O Himmel ich verspre (5-93), S. 147
N: P0767
O: Lothringen
S: MERKELBACH-PINCK, Angelika: Verklingende Weisen, Bd 5, Kassel 1962]
R: Soldatenlied, Tod]
M: 4/4
L: 1/8
K: C
G4 | E3EE3E | E6
C2 | D3CD2E2 | F4G4 | E6
G2 | E2G2G2G2 | A6
G2 | c3GG3E | E2D4
C2 | D2C2D2E2 | F4
G4 | E3DE2F2 | G6
G2 | A2G2A2B2 | c2
G2A2GF | G4G4 | E4

@@@ Tune index: 8047
